public/static/img/assets/convert.svg

<svg width="42" height="42" viewBox="0 0 42 42" fill="none" xmlns="http://www.w3.org/2000/svg">
<circle cx="21" cy="21" r="21" fill="#00A609"/>
<path d="M17.9386 12.727C18.0607 12.605 18.3658 12.666 18.3658 12.9101V29.1602C18.3658 29.5264 18.1217 29.7705 17.7555 29.7705H17.1452C16.779 29.7705 16.5349 29.5264 16.5349 29.1602V18.1647H13.7235C13.4794 18.1647 13.4183 17.9206 13.5404 17.7375L17.9386 12.727ZM23.8626 12.666H24.4729C24.8391 12.666 25.0832 12.9101 25.0832 13.2763V24.2718H27.8926C28.1367 24.2718 28.1977 24.5159 28.0757 24.699L23.6795 29.7095C23.5574 29.8315 23.2522 29.7705 23.2522 29.5264V13.2763C23.2522 12.9101 23.4964 12.666 23.8626 12.666Z" fill="white"/>
</svg>

<svg width="42" height="42" fill="none" xmlns="http://www.w3.org/2000/svg"><circle cx="21" cy="21" r="21" fill="#00A609"/><path d="M17.939 12.727c.122-.122.427-.061.427.183v16.25c0 .366-.244.61-.61.61h-.61c-.367 0-.611-.244-.611-.61V18.165h-2.812c-.244 0-.305-.244-.183-.427l4.399-5.011Zm5.924-.061h.61c.366 0 .61.244.61.61v10.996h2.81c.244 0 .305.244.183.427l-4.396 5.01c-.123.122-.428.061-.428-.183v-16.25c0-.366.244-.61.61-.61Z" fill="#fff"/></svg>
